X:0423
T:The Blathrie o'it.
M:C
L:1/8
Q:1/4=72
I: || ||
Z:Jack Campin * www.campin.me.uk * 2009
K:G
 G>A|    B2      g>e  d<BA>B      | {A}G2 d>e ({e}d2)
 G>A|{GA}B2      g>e  d<BA>G      |{GA}B2 e>f     e2||
Tg>e|    d>eg>a      (g/a/b)   Tag|    a>ga>b     d2
 g>a|   (g/a/b) Tag  (e/d/e/f/) gG|{GA}B2 e>f     e2|]
<end>
<start>
